src/icons/graphics/uF0A8-grafx-cubic-spline.svg

<svg xmlns="http://www.w3.org/2000/svg" viewBox="0 0 1280 1024"><path d="M1184,704c-.21448,0-.42731.00684-.64142.0083l-146.53552-405.791A95.98022,95.98022,0,1,0,885.491,192H394.509A95.99077,95.99077,0,1,0,243.177,298.21729L96.64136,704.0083C96.42725,704.00684,96.21448,704,96,704a96.1071,96.1071,0,1,0,60.823,21.78271l14.41431-39.9165a749.416,749.416,0,0,1,59.998-83.64844C342.59033,468.03613,480.11914,400,640,400c159.54932,0,296.85693,67.77051,408.1084,201.42871A747.77283,747.77283,0,0,1,1108.80023,685.97l14.37677,39.81274A95.94943,95.94943,0,1,0,1184,704Zm0,128a32,32,0,1,1,32-32A32,32,0,0,1,1184,832ZM976,192a32,32,0,1,1-32,32A32,32,0,0,1,976,192Zm-672,0a32,32,0,1,1-32,32A31.99994,31.99994,0,0,1,304,192ZM96,832a32,32,0,1,1,32-32A31.99994,31.99994,0,0,1,96,832ZM900.52979,435.04C821.10254,390.55566,733.44727,368,640,368s-181.10254,22.55566-260.52979,67.04c-61.73975,34.57813-118.56079,82.37476-168.97363,142.10791L303.35864,319.9917c.21411.00146.427.0083.64136.0083a96.16256,96.16256,0,0,0,90.509-64H885.491A96.16256,96.16256,0,0,0,976,320c.21442,0,.42725-.00684.64136-.0083l92.862,257.15625C1019.09058,517.41479,962.26947,469.61816,900.52979,435.04Z"/></svg>

<svg xmlns="http://www.w3.org/2000/svg" viewBox="0 0 1280 1024" role="img"><path d="M1184 704c-.214 0-.427.007-.641.008l-146.536-405.79A95.98 95.98 0 10885.491 192H394.509a95.99 95.99 0 10-151.332 106.217L96.641 704.008c-.214-.001-.427-.008-.641-.008a96.107 96.107 0 1060.823 21.783l14.414-39.917a749.416 749.416 0 0159.998-83.648C342.59 468.036 480.12 400 640 400c159.55 0 296.857 67.77 408.108 201.429a747.773 747.773 0 0160.692 84.541l14.377 39.813A95.95 95.95 0 101184 704zm0 128a32 32 0 1132-32 32 32 0 01-32 32zM976 192a32 32 0 11-32 32 32 32 0 0132-32zm-672 0a32 32 0 11-32 32 32 32 0 0132-32zM96 832a32 32 0 1132-32 32 32 0 01-32 32zm804.53-396.96C821.103 390.556 733.447 368 640 368s-181.103 22.556-260.53 67.04c-61.74 34.578-118.56 82.375-168.973 142.108l92.862-257.156c.214.001.427.008.641.008a96.163 96.163 0 0090.509-64h490.982A96.163 96.163 0 00976 320c.214 0 .427-.007.641-.008l92.862 257.156c-50.412-59.733-107.234-107.53-168.973-142.108z"/></svg>
